X: 8
T:Job of Journey Work (#84)
M:2/4
L:1/8
S:Aird's Selections 1782-97
K:G
g2|dB GB|"tr"d2 dg|dB c/2B/2A/2G/2|A2 GA|
B/2A/2G/2A/2 B/2A/2G/2F/2|E>F GA|de e^d|g2:|
|:d2|gg a/2g/2f/2e/2|dd dB|gg a/2g/2f/2g/2|"tr"e2 dB|
gg a/2g/2f/2e/2|dd dg|dB c/2B/2A/2G/2|"tr"A2 GA|
B/2A/2G/2A/2 B/2A/2G/2F/2|E>F GA|Be e^d|e2:||
%
% This is a variant of the Long Dance of the same name
% in O'Neill's Dance Music of Ireland. It differs however
% in having two bars less in the second part.

